X: 21341
T: Kerfunten, The
R: jig
M: 6/8
K: Gmajor
~B3 BAG|dBd deg|dBd gdB|~A3 DFA|
~B3 BAG|dBd deg|dBd gdB|~A3 G3:|
~g3 gab|~e3 edB|~g3 gab|bag ~a3|
~g3 gab|~e3 efg|d2d edB|~A3 G3:|

